packages/foundations/icons/Business/Coins.svg

<svg width="24" height="24" viewBox="0 0 24 24" fill="none" xmlns="http://www.w3.org/2000/svg">
<path d="M3 14H1C1 15.3429 1.83888 16.4253 3 17.2413V14Z" fill="#3D474D"/>
<path d="M3 9H1C1 10.3429 1.83888 11.4253 3 12.2413V9Z" fill="#3D474D"/>
<path d="M1 4.5C1 5.40017 1.52358 6.11582 2.14832 6.63279C2.39938 6.84053 2.68556 7.03298 3 7.21072V4.5V4H1.05536C1.01946 4.15974 1 4.32644 1 4.5Z" fill="#3D474D"/>
<path d="M3 18.5H1C1 18.6709 1.01358 18.8376 1.03969 19H3V18.5Z" fill="#3D474D"/>
<path fill-rule="evenodd" clip-rule="evenodd" d="M3.42337 3.90807C3.03606 4.22857 3 4.43368 3 4.5V4H1.05536C1.20566 3.33125 1.64404 2.78451 2.14832 2.36721C2.77943 1.84498 3.63251 1.41939 4.59858 1.08127C6.53996 0.401785 9.1568 0 12 0C14.8432 0 17.46 0.401785 19.4014 1.08127C20.3675 1.41939 21.2206 1.84498 21.8517 2.36721C22.356 2.78451 22.7943 3.33125 22.9446 4H23V4.5V9V14V18.5H21V17.2413C20.5345 17.5685 20.0172 17.8528 19.4814 18.0939C17.5153 18.9787 14.8693 19.5 12 19.5C9.13066 19.5 6.48468 18.9787 4.51857 18.0939C3.98278 17.8528 3.46549 17.5685 3 17.2413V14C3 14.604 3.59225 15.4839 5.3393 16.2701C6.99248 17.014 9.34649 17.5 12 17.5C14.6535 17.5 17.0075 17.014 18.6607 16.2701C20.4077 15.4839 21 14.604 21 14V12.2413C20.5345 12.5685 20.0172 12.8528 19.4814 13.0939C17.5153 13.9787 14.8693 14.5 12 14.5C9.13066 14.5 6.48468 13.9787 4.51857 13.0939C3.98278 12.8528 3.46549 12.5685 3 12.2413V9C3 9.60402 3.59225 10.4839 5.3393 11.2701C6.99248 12.014 9.34649 12.5 12 12.5C14.6535 12.5 17.0075 12.014 18.6607 11.2701C20.4077 10.4839 21 9.60402 21 9V7.21072C20.524 7.47978 19.9832 7.71511 19.4014 7.91873C17.46 8.59822 14.8432 9 12 9C9.1568 9 6.53996 8.59822 4.59858 7.91873C4.01681 7.71511 3.47602 7.47978 3 7.21072V4.5C3 4.56632 3.03606 4.77143 3.42337 5.09193C3.80432 5.40716 4.41571 5.73576 5.25928 6.03102C6.93719 6.61828 9.32035 7 12 7C14.6796 7 17.0628 6.61828 18.7407 6.03102C19.5843 5.73576 20.1957 5.40716 20.5766 5.09193C20.9639 4.77143 21 4.56632 21 4.5C21 4.43368 20.9639 4.22857 20.5766 3.90807C20.1957 3.59284 19.5843 3.26424 18.7407 2.96898C17.0628 2.38172 14.6796 2 12 2C9.32035 2 6.93719 2.38172 5.25928 2.96898C4.41571 3.26424 3.80432 3.59284 3.42337 3.90807ZM1 4.5C1 5.40017 1.52358 6.11582 2.14832 6.63279C2.39938 6.84053 2.68556 7.03298 3 7.21072V9H1V4.5ZM1 14C1 15.3429 1.83888 16.4253 3 17.2413V18.5H1V14ZM1.03969 19C1.01358 18.8376 1 18.6709 1 18.5V19H1.03969ZM22.9603 19H21V18.5C21 19.104 20.4077 19.9839 18.6607 20.7701C17.0075 21.514 14.6535 22 12 22C9.34649 22 6.99248 21.514 5.3393 20.7701C3.59225 19.9839 3 19.104 3 18.5V19H1.03969C1.30096 20.6258 2.81639 21.8279 4.51857 22.5939C6.48468 23.4787 9.13066 24 12 24C14.8693 24 17.5153 23.4787 19.4814 22.5939C21.1836 21.8279 22.699 20.6258 22.9603 19ZM1 14H3V12.2413C1.83888 11.4253 1 10.3429 1 9V14ZM1 4.5C1 4.32644 1.01946 4.15974 1.05536 4H1V4.5ZM22.9603 19C22.9864 18.8376 23 18.6709 23 18.5V19H22.9603Z" fill="#3D474D"/>
<path d="M23 18.5H21V19H22.9603C22.9864 18.8376 23 18.6709 23 18.5Z" fill="#3D474D"/>
</svg>

<svg width="24" height="24" fill="none" xmlns="http://www.w3.org/2000/svg"><path d="M3 14H1c0 1.343.839 2.425 2 3.241V14zM3 9H1c0 1.343.839 2.425 2 3.241V9zM1 4.5c0 .9.524 1.616 1.148 2.133.251.208.538.4.852.578V4H1.055C1.02 4.16 1 4.326 1 4.5zM3 18.5H1c0 .17.014.338.04.5H3v-.5z" fill="#3D474D"/><path fill-rule="evenodd" clip-rule="evenodd" d="M3.423 3.908C3.036 4.228 3 4.434 3 4.5V4H1.055c.15-.669.589-1.215 1.093-1.633.631-.522 1.485-.948 2.45-1.286C6.54.401 9.158 0 12 0s5.46.402 7.401 1.081c.966.338 1.82.764 2.45 1.286.505.418.943.964 1.094 1.633H23v14.5h-2v-1.259a9.254 9.254 0 01-1.519.853C17.515 18.979 14.87 19.5 12 19.5c-2.87 0-5.515-.521-7.481-1.406A9.253 9.253 0 013 17.24V14c0 .604.592 1.484 2.34 2.27 1.652.744 4.006 1.23 6.66 1.23 2.653 0 5.008-.486 6.66-1.23C20.409 15.484 21 14.604 21 14v-1.759a9.254 9.254 0 01-1.519.853C17.515 13.979 14.87 14.5 12 14.5c-2.87 0-5.515-.521-7.481-1.406A9.253 9.253 0 013 12.24V9c0 .604.592 1.484 2.34 2.27 1.652.744 4.006 1.23 6.66 1.23 2.653 0 5.008-.486 6.66-1.23C20.409 10.484 21 9.604 21 9V7.21a9.934 9.934 0 01-1.599.709C17.46 8.599 14.843 9 12 9s-5.46-.402-7.401-1.081A9.936 9.936 0 013 7.21V4.5c0 .066.036.271.423.592.381.315.993.644 1.836.939C6.937 6.618 9.32 7 12 7c2.68 0 5.063-.382 6.74-.969.844-.295 1.456-.624 1.837-.94.387-.32.423-.525.423-.591 0-.066-.036-.271-.423-.592-.381-.315-.993-.644-1.836-.939C17.063 2.382 14.68 2 12 2c-2.68 0-5.063.382-6.74.969-.844.295-1.456.624-1.837.94zM1 4.5c0 .9.524 1.616 1.148 2.133.251.208.538.4.852.578V9H1V4.5zM1 14c0 1.343.839 2.425 2 3.241V18.5H1V14zm.04 5a3.145 3.145 0 01-.04-.5v.5h.04zm21.92 0H21v-.5c0 .604-.592 1.484-2.34 2.27C17.009 21.514 14.654 22 12 22c-2.654 0-5.008-.486-6.66-1.23C3.591 19.984 3 19.104 3 18.5v.5H1.04c.261 1.626 1.776 2.828 3.479 3.594C6.485 23.479 9.13 24 12 24c2.87 0 5.515-.521 7.481-1.406 1.703-.766 3.218-1.968 3.48-3.594zM1 14h2v-1.759C1.839 11.425 1 10.343 1 9v5zm0-9.5c0-.174.02-.34.055-.5H1v.5zM22.96 19c.026-.162.04-.33.04-.5v.5h-.04z" fill="#3D474D"/><path d="M23 18.5h-2v.5h1.96c.026-.162.04-.33.04-.5z" fill="#3D474D"/></svg>
